X:716
T:John Morrison - Assynt House 
C:Joe Buchanan's Scottish Tome - Page 236.0
I:236 0
Z:Carl Allison
C:P.M. Peter MacLeod
R:Reel
L:1/8
M:4/4
K:D
a | "Am"A>AA>B A>AA>B | "Am"{f}e2 e2 d>BB>d | "G"G>GG>B G>GG>B | "G"{e}d2 ed B>GG>B |
"Am"{AB}A2 A2 G>AA>B | "Am"{f}e2 e2 d>BB>d | "G"(e<g)(B<d) "Am"e2 (a>e) | "G"g2 (B<d)e>A A2 |]
A2 | "Am"{AB}A2 (a>g) a2 (eg) | {b}a2 ga "Em"geef | "G"{f}g2 (ae) g2 (B<d) | g2 (ag) "Bm"f>dd>f |
"C"(e<g)("Bm"B<d) "Em"{f}e2 (ge) | "Am"{b}a2 (g<a) "C"g>ee>g | "G"d>BB>d "Em"e2 (a>e) | "G"g2 B<d"Am"e>A A2 |]
a | "Am"{B}A2 e>d e2 A>B | {f}e2 e2 "G"d>BB>d | G<GdB {e}d2 G>B | "Em"{f}e2 d>A B>GG>B |
"Am"{B}A2 e>d e2 A>B | {f}e2 e2 "G"d>BB>d | "C"e<g"Bm"B<d "Em"{f}e2 a>e | "G"g2 B<d"Am"e>A A |]
B | "Am"A>aa>g a>ge>d | e>aa>g a2 (g<e) | "G"d>gg>a g>ed>B | d>gg>a g2 (e>d) |
"Am"e>aa>g a>ge>d | e>aa>g a2 (g<e) | "G"d>BB>d "C"e2 (a>e) | "G"g2 (B<d)"Am"e>A A |]
B | "Am"e>Ae>d e>AA>B | e>Ae>d B>AA>B | "G"d>Gd>B d>GG>B | "Am"e>Ad>A "G"B>GG>B |
"Am"e>Ae>d e>AA>B | "C"{f}e2 e2 "G"d>BB>d | "C"(e<g)"Bm"(B<d) "Em"{f}e2 (a>e) | "G"g2 (B<d)"Am"e>A A2 |]
e | "Am"{g}a2 (eg) a>ee>g | a2 (e>a) "Em"geae | "G"{f}g2 (d>e) g>dd>e | g2 (dg) e>dg>d |
"Am"{g}a2 (eg) a>ee>g | a2 (e>a) "Em"geae | "G"d>BB>d "Em"e2 (a>e) | "G"g2 (B<d)"Am"e>A A |]

